X: 1639
T: Just As The Sun Goes Down
C:Lyn Udall, (pub 1898)
B: australian traditional tunes wiki
M:3/4
L:1/8
R: Waltz
Q: 1/4=100
K:D
V:1 
"D"A2B2d2|"G"B2d2B2|"A7"c4e2|"G"B4A2|"A7"A2c2e2|a4b2|
"D"f2f2f2|f4c2|"Em"e2d2B2|e2d2B2|"D"A4d2|f4f2|1
"E7"f2e2d2|B4f2|"A7"e3ee2|e4B2:|2"A7"f2a2g2|f4e2|"D"d3dd2|d4||
% abcbook-tune_id 6342d53aa17ac38a9abfc22b


% abcbook-boost 0
% abcbook-tablature 
% abcbook-transpose 
% abcbook-lastupdated 1665324375477
% abcbook-soundfonts 
% abcbook-repeats 1
% NFF Book 2007

